X:6
T:()
M:4/4
L:1/8
Q:180
K:Eb
|: Gded ccd2 | =BccB AAG2 | Gded ccd2 | =BccB AAG2 | Gded ccd2 | =BccB AAG2 
| F2 FF GA=BA | G2 GA =BBAG | F2FF GA=BA | G2G=B ABG2 :||
